status/24/notification-network-wireless-none.svg

<?xml version="1.0" encoding="UTF-8" standalone="no"?>
<!-- Created with Inkscape (http://www.inkscape.org/) -->

<svg
   xmlns:svg="http://www.w3.org/2000/svg"
   xmlns="http://www.w3.org/2000/svg"
   version="1.0"
   width="24"
   height="24"
   id="svg2">
  <defs
     id="defs4" />
  <g
     id="layer1">
    <path
       d="m 14.14692,17.209598 c -0.09425,0.08129 -2.174519,2.290954 -2.174519,2.290954 0,0 -2.0604595,-2.228336 -2.1377667,-2.290954 0.1381547,-0.103794 0.7020277,-0.511967 2.1422587,-0.506146 1.417157,0.0057 2.062088,0.405537 2.170027,0.506146 z"
       id="path3375"
       style="opacity:0.5;fill:#919191;fill-opacity:1;fill-rule:evenodd;stroke:none;overflow:visible" />
    <path
       d="m 2.1991235,8.9143482 c 0,0 3.1038827,-3.4307802 9.7815505,-3.4307802 6.644841,0 9.820203,3.4366024 9.820203,3.4366024"
       id="path2513"
       style="opacity:0.5;fill:none;stroke:#919191;stroke-width:1.75;stroke-linecap:butt;stroke-linejoin:miter;stroke-miterlimit:4;stroke-opacity:1;stroke-dasharray:none;overflow:visible" />
    <path
       d="m 5.0566111,11.95324 c 0,0 2.2353716,-2.4223848 6.9240629,-2.3361998 4.727583,0.0869 6.924062,2.3751058 6.924062,2.3751058"
       id="path2511"
       style="opacity:0.5;fill:none;stroke:#919191;stroke-width:1.75;stroke-linecap:butt;stroke-linejoin:miter;stroke-miterlimit:4;stroke-opacity:1;stroke-dasharray:none;overflow:visible" />
    <path
       d="m 7.7707898,14.95 c 0,0 1.0185042,-1.291002 4.1389772,-1.323908 3.081571,-0.0325 4.260671,1.323908 4.260671,1.323908"
       id="path3209"
       style="opacity:0.5;fill:none;stroke:#919191;stroke-width:1.70000005;stroke-linecap:butt;stroke-linejoin:miter;stroke-miterlimit:4;stroke-opacity:1;stroke-dasharray:none;overflow:visible" />
  </g>
</svg>

<?xml version="1.0" encoding="UTF-8" standalone="no"?>
<!-- Created with Inkscape (http://www.inkscape.org/) -->
<svg
   xmlns:dc="http://purl.org/dc/elements/1.1/"
   xmlns:cc="http://creativecommons.org/ns#"
   xmlns:rdf="http://www.w3.org/1999/02/22-rdf-syntax-ns#"
   xmlns:svg="http://www.w3.org/2000/svg"
   xmlns="http://www.w3.org/2000/svg"
   xmlns:sodipodi="http://sodipodi.sourceforge.net/DTD/sodipodi-0.dtd"
   xmlns:inkscape="http://www.inkscape.org/namespaces/inkscape"
   width="24"
   height="24"
   id="svg2"
   sodipodi:version="0.32"
   inkscape:version="0.46"
   version="1.0"
   sodipodi:docname="notification-network-wireless-none.svg"
   inkscape:output_extension="org.inkscape.output.svg.inkscape">
  <defs
     id="defs4" />
  <sodipodi:namedview
     id="base"
     pagecolor="#ffffff"
     bordercolor="#666666"
     borderopacity="1.0"
     gridtolerance="10000"
     guidetolerance="10"
     objecttolerance="10"
     inkscape:pageopacity="0.0"
     inkscape:pageshadow="2"
     inkscape:zoom="10.375"
     inkscape:cx="12"
     inkscape:cy="12"
     inkscape:document-units="px"
     inkscape:current-layer="layer1"
     showgrid="false"
     inkscape:window-width="640"
     inkscape:window-height="720"
     inkscape:window-x="798"
     inkscape:window-y="24" />
  <metadata
     id="metadata7">
    <rdf:RDF>
      <cc:Work
         rdf:about="">
        <dc:format>image/svg+xml</dc:format>
        <dc:type
           rdf:resource="http://purl.org/dc/dcmitype/StillImage" />
      </cc:Work>
    </rdf:RDF>
  </metadata>
  <g
     inkscape:label="Layer 1"
     inkscape:groupmode="layer"
     id="layer1">
    <path
       style="opacity:0.50000000000000000;fill:#919191;fill-opacity:1;fill-rule:evenodd;stroke:none;stroke-width:5.33333349000000023;stroke-linecap:round;stroke-linejoin:miter;stroke-miterlimit:4;stroke-dasharray:none;stroke-opacity:1;overflow:visible"
       d="M 14.14692,17.209598 C 14.05267,17.290889 11.972401,19.500552 11.972401,19.500552 C 11.972401,19.500552 9.9119415,17.272216 9.8346343,17.209598 C 9.972789,17.105804 10.536662,16.697631 11.976893,16.703452 C 13.39405,16.709181 14.038981,17.108989 14.14692,17.209598 z"
       id="path3375"
       sodipodi:nodetypes="ccczc" />
    <path
       style="fill:none;fill-rule:evenodd;stroke:#919191;stroke-width:1.75000000000000000;stroke-linecap:butt;stroke-linejoin:miter;stroke-miterlimit:4;stroke-dasharray:none;stroke-opacity:1;overflow:visible;opacity:0.50000000000000000"
       d="M 2.1991235,8.9143482 C 2.1991235,8.9143482 5.3030062,5.483568 11.980674,5.483568 C 18.625515,5.483568 21.800877,8.9201704 21.800877,8.9201704"
       id="path2513" />
    <path
       style="fill:none;fill-rule:evenodd;stroke:#919191;stroke-width:1.75000000000000000;stroke-linecap:butt;stroke-linejoin:miter;stroke-miterlimit:4;stroke-dasharray:none;stroke-opacity:1;overflow:visible;opacity:0.50000000000000000"
       d="M 5.0566111,11.95324 C 5.0566111,11.95324 7.2919827,9.5308552 11.980674,9.6170402 C 16.708257,9.7039399 18.904736,11.992146 18.904736,11.992146"
       id="path2511" />
    <path
       style="fill:none;fill-rule:evenodd;stroke:#919191;stroke-width:1.69999999999999996;stroke-linecap:butt;stroke-linejoin:miter;stroke-miterlimit:4;stroke-dasharray:none;stroke-opacity:1;overflow:visible;opacity:0.50000000000000000"
       d="M 7.7707898,14.95 C 7.7707898,14.95 8.789294,13.658998 11.909767,13.626092 C 14.991338,13.593596 16.170438,14.95 16.170438,14.95"
       id="path3209"
       sodipodi:nodetypes="csc" />
  </g>
</svg>
